front/assets/images/stat-utilisateurs-inscrits.svg

<svg width="96" height="96" viewBox="0 0 96 96" fill="none" xmlns="http://www.w3.org/2000/svg">
<path fill-rule="evenodd" clip-rule="evenodd" d="M18 16.7995C17.3383 16.7995 16.8 16.2612 16.8 15.5995C16.8 14.9378 17.3383 14.3995 18 14.3995C18.6617 14.3995 19.2 14.9378 19.2 15.5995C19.2 16.2612 18.6617 16.7995 18 16.7995Z" fill="#FFF7DB"/>
<path fill-rule="evenodd" clip-rule="evenodd" d="M5.99999 83.9995C5.33831 83.9995 4.79999 83.4612 4.79999 82.7995C4.79999 82.1378 5.33831 81.5995 5.99999 81.5995C6.66167 81.5995 7.19999 82.1378 7.19999 82.7995C7.19999 83.4612 6.66167 83.9995 5.99999 83.9995Z" fill="#FFF7DB"/>
<path fill-rule="evenodd" clip-rule="evenodd" d="M90 76.7995C89.3383 76.7995 88.8 76.2612 88.8 75.5995C88.8 74.9378 89.3383 74.3995 90 74.3995C90.6617 74.3995 91.2 74.9378 91.2 75.5995C91.2 76.2612 90.6617 76.7995 90 76.7995Z" fill="#FFF7DB"/>
<path fill-rule="evenodd" clip-rule="evenodd" d="M70.8 14.3995C70.1383 14.3995 69.6 13.8612 69.6 13.1995C69.6 12.5378 70.1383 11.9995 70.8 11.9995C71.4617 11.9995 72 12.5378 72 13.1995C72 13.8612 71.4617 14.3995 70.8 14.3995Z" fill="#FFF7DB"/>
<path d="M50.5777 11.9995C70.46 11.9995 86.5777 28.1173 86.5777 47.9995C86.5777 48.6623 86.0405 49.1995 85.3777 49.1995C84.715 49.1995 84.1777 48.6623 84.1777 47.9995C84.1777 29.4427 69.1345 14.3995 50.5777 14.3995C32.021 14.3995 16.9777 29.4427 16.9777 47.9995C16.9777 66.5563 32.021 81.5995 50.5777 81.5995C63.9634 81.5995 75.9063 73.7005 81.2718 61.6895C81.5421 61.0844 82.2518 60.813 82.8569 61.0833C83.462 61.3536 83.7334 62.0633 83.4631 62.6684C77.7149 75.5362 64.9188 83.9995 50.5777 83.9995C30.6955 83.9995 14.5777 67.8818 14.5777 47.9995C14.5777 28.1173 30.6955 11.9995 50.5777 11.9995Z" fill="#FED980"/>
<path d="M85.3777 58.3106C85.3777 59.0225 84.8007 59.5995 84.0889 59.5995C83.377 59.5995 82.8 59.0225 82.8 58.3106C82.8 57.5988 83.377 57.0217 84.0889 57.0217C84.8007 57.0217 85.3777 57.5988 85.3777 58.3106Z" fill="#FED980"/>
<path d="M17.3918 25.238C16.8644 24.8366 16.1115 24.9386 15.7101 25.4659C11.6545 30.7932 9.42218 37.2952 9.42218 44.1328C9.42218 44.7956 9.95944 45.3328 10.6222 45.3328C11.2849 45.3328 11.8222 44.7956 11.8222 44.1328C11.8222 37.825 13.8795 31.8326 17.6197 26.9197C18.0211 26.3924 17.9191 25.6394 17.3918 25.238Z" fill="#FED980"/>
<path fill-rule="evenodd" clip-rule="evenodd" d="M67.1959 41.8998C66.3441 31.6786 60.6249 26.3994 50.4 26.3994C40.1751 26.3994 34.4559 31.6786 33.6041 41.8998C33.5397 42.6732 34.2154 43.3035 34.9825 43.1855L37.2 42.8443V43.3686C36.3411 43.5341 35.7079 43.7632 35.2641 44.0942C34.1386 44.9333 33.5999 46.2753 33.5999 47.9994C33.5999 51.0622 35.3371 52.7994 38.3999 52.7994C38.5305 52.7994 38.6563 52.7785 38.774 52.7399C40.0506 55.2153 42.0296 57.238 44.4342 58.5137C44.4119 58.6053 44.4 58.701 44.4 58.7994C44.4 60.3578 43.6573 61.7428 42.5066 62.6196C42.488 62.6328 42.4699 62.6464 42.4522 62.6605C41.6548 63.2505 40.6681 63.5994 39.6 63.5994H37.2L36.9301 63.6044C33.0787 63.7463 30 66.9133 30 70.7994C30 71.4622 30.5373 71.9994 31.2 71.9994C31.8627 71.9994 32.4 71.4622 32.4 70.7994C32.4 68.1484 34.549 65.9994 37.2 65.9994H39.6L39.8699 65.9944C40.8736 65.9575 41.8248 65.715 42.6827 65.3079C43.9693 67.3327 46.3421 67.9508 49.491 67.1636C50.134 67.0028 50.5249 66.3513 50.3642 65.7084C50.2034 65.0654 49.5519 64.6745 48.909 64.8352C46.6653 65.3962 45.3548 65.0925 44.6557 63.9258C45.83 62.7676 46.6083 61.2089 46.7691 59.4712C47.9221 59.8152 49.1401 59.9994 50.4 59.9994C51.6599 59.9994 52.8779 59.8152 54.0309 59.4712C54.3616 63.0445 57.3032 65.8608 60.9301 65.9944L61.2 65.9994H63.6C66.251 65.9994 68.4 68.1484 68.4 70.7994C68.4 71.4622 68.9373 71.9994 69.6 71.9994C70.2627 71.9994 70.8 71.4622 70.8 70.7994C70.8 66.9133 67.7213 63.7463 63.8699 63.6044L63.6 63.5994H61.2C58.549 63.5994 56.4 61.4504 56.4 58.7994C56.4 58.701 56.3881 58.6053 56.3658 58.5137C58.7704 57.238 60.7494 55.2154 62.0259 52.74C62.1437 52.7785 62.2694 52.7994 62.4 52.7994C65.4627 52.7994 67.2 51.0622 67.2 47.9994C67.2 46.2753 66.6613 44.9333 65.5358 44.0942C64.9291 43.6418 63.9687 43.3797 62.5613 43.2102C62.51 43.2033 62.4576 43.1996 62.4045 43.1994L62.4025 43.1993C62.2867 43.1989 62.1739 43.2153 62.0667 43.2463C61.8938 43.2962 61.737 43.3839 61.6057 43.4999C61.3735 43.705 61.2214 43.9987 61.2021 44.3281C61.2003 44.3582 61.1996 44.3881 61.2 44.4179V46.1994L61.1955 46.5303C61.0295 52.6853 56.2468 57.5994 50.4 57.5994C44.4488 57.5994 39.6 52.5082 39.6 46.1994V42.4751L50.5825 40.7855L50.7241 40.7548C51.0477 40.6641 51.321 40.4407 51.4733 40.1361L52.6733 37.7361L52.7287 37.6073C52.9336 37.0425 52.6871 36.4013 52.1367 36.1261L52.0079 36.0707C51.4431 35.8658 50.8019 36.1123 50.5267 36.6628L49.6032 38.5074L36.168 40.5738L36.1899 40.4193C37.3659 32.5807 42.004 28.7994 50.4 28.7994L50.8309 28.8028C58.8124 28.9288 63.2953 32.5841 64.5462 40.0175L64.608 40.4142L56.691 38.4352L56.5533 38.4091C55.9575 38.3316 55.3851 38.7113 55.2358 39.3084C55.0751 39.9513 55.466 40.6028 56.109 40.7636L65.709 43.1636L65.8492 43.1902C66.5929 43.2867 67.2601 42.671 67.1959 41.8998ZM37.2 45.8275C36.9455 45.8944 36.7756 45.9608 36.6986 46.0182C36.2488 46.3536 35.9999 46.9737 35.9999 47.9994C35.9999 49.5256 36.5114 50.2225 37.8136 50.3693C37.4476 49.1609 37.2364 47.8809 37.2043 46.555L37.2 46.1994V45.8275ZM64.8 47.9994C64.8 49.5256 64.2885 50.2225 62.9864 50.3693C63.3851 49.0532 63.6 47.6521 63.6 46.1994V45.8276C63.8545 45.8944 64.0243 45.9608 64.1013 46.0182C64.5511 46.3536 64.8 46.9737 64.8 47.9994Z" fill="#0D0C21"/>
</svg>

<svg xmlns="http://www.w3.org/2000/svg" width="96" height="96" fill="none"><path fill="#FFF7DB" fill-rule="evenodd" d="M18 16.8a1.201 1.201 0 1 1 1.2-1.2c0 .662-.538 1.2-1.2 1.2M6 84a1.201 1.201 0 1 1 1.2-1.2c0 .662-.538 1.2-1.2 1.2m84-7.2a1.201 1.201 0 1 1 1.2-1.2c0 .662-.538 1.2-1.2 1.2M70.8 14.4a1.201 1.201 0 1 1 1.2-1.2c0 .662-.538 1.2-1.2 1.2" clip-rule="evenodd"/><path fill="#FED980" d="M50.578 12c19.882 0 36 16.117 36 36a1.2 1.2 0 1 1-2.4 0c0-18.557-15.043-33.6-33.6-33.6s-33.6 15.043-33.6 33.6c0 18.556 15.043 33.6 33.6 33.6 13.385 0 25.328-7.9 30.694-19.91a1.2 1.2 0 0 1 2.191.978C77.715 75.536 64.92 84 50.578 84c-19.883 0-36-16.118-36-36s16.118-36 36-36"/><path fill="#FED980" d="M85.378 58.31a1.289 1.289 0 1 1-2.578 0 1.289 1.289 0 0 1 2.578 0M17.392 25.238a1.2 1.2 0 0 0-1.682.228 30.7 30.7 0 0 0-6.288 18.667 1.2 1.2 0 1 0 2.4 0A28.3 28.3 0 0 1 17.62 26.92a1.2 1.2 0 0 0-.228-1.682"/><path fill="#0D0C21" fill-rule="evenodd" d="M67.196 41.9c-.852-10.221-6.571-15.5-16.796-15.5s-15.944 5.279-16.796 15.5a1.2 1.2 0 0 0 1.379 1.285l2.217-.34v.524c-.859.165-1.492.394-1.936.725-1.125.84-1.664 2.181-1.664 3.905 0 3.063 1.737 4.8 4.8 4.8q.196 0 .374-.06c1.277 2.476 3.256 4.499 5.66 5.775a1.2 1.2 0 0 0-.034.285 4.8 4.8 0 0 1-1.948 3.861 4.78 4.78 0 0 1-2.852.94h-2.4l-.27.004A7.2 7.2 0 0 0 30 70.8a1.2 1.2 0 1 0 2.4 0 4.8 4.8 0 0 1 4.8-4.8h2.4l.27-.005a7.2 7.2 0 0 0 2.813-.686c1.286 2.025 3.66 2.643 6.808 1.856a1.2 1.2 0 0 0-.582-2.329c-2.244.561-3.554.258-4.253-.91a7.18 7.18 0 0 0 2.113-4.454c1.153.344 2.371.528 3.631.528s2.478-.184 3.63-.528a7.2 7.2 0 0 0 6.9 6.523l.27.005h2.4a4.8 4.8 0 0 1 4.8 4.8 1.2 1.2 0 1 0 2.4 0 7.2 7.2 0 0 0-6.93-7.195l-.27-.005h-2.4a4.8 4.8 0 0 1-4.8-4.8q0-.148-.034-.285c2.404-1.276 4.383-3.299 5.66-5.774q.177.058.374.06c3.063 0 4.8-1.738 4.8-4.8 0-1.725-.539-3.067-1.664-3.906-.607-.452-1.567-.714-2.975-.884a1 1 0 0 0-.157-.01h-.002a1.2 1.2 0 0 0-.796.3 1.2 1.2 0 0 0-.406.918V46.2l-.005.331C61.03 52.685 56.248 57.6 50.4 57.6c-5.951 0-10.8-5.092-10.8-11.4v-3.725l10.983-1.69.141-.03a1.2 1.2 0 0 0 .75-.619l1.2-2.4.055-.129a1.2 1.2 0 0 0-.592-1.48l-.13-.056a1.2 1.2 0 0 0-1.48.592l-.924 1.844-13.435 2.067.022-.155c1.176-7.838 5.814-11.62 14.21-11.62l.43.004c7.982.126 12.465 3.781 13.716 11.214l.062.397-7.917-1.979-.138-.026a1.2 1.2 0 0 0-.444 2.355l9.6 2.4.14.026a1.2 1.2 0 0 0 1.347-1.29M37.2 45.828c-.255.066-.424.133-.501.19-.45.336-.7.956-.7 1.981 0 1.527.512 2.223 1.815 2.37a14.3 14.3 0 0 1-.61-3.814l-.004-.356zm27.6 2.171c0 1.527-.511 2.223-1.814 2.37.4-1.316.614-2.717.614-4.17v-.371c.255.066.424.133.501.19.45.336.699.956.699 1.981" clip-rule="evenodd"/></svg>
